img/partners/businessLine.svg

<svg width="350" height="54" viewBox="0 0 350 54" fill="none" xmlns="http://www.w3.org/2000/svg">
<path d="M98.1585 47.7236H108.222L110.548 43.6279H98.1585V47.7236ZM176.999 43.7796H169.162V39.7832H176.999C178.261 39.7832 179.174 40.0882 179.174 41.7561C179.174 43.0702 178.618 43.7796 176.999 43.7796ZM169.162 33.0576H176.288C177.351 33.0576 177.808 33.6135 177.808 34.6749C177.808 35.7886 177.1 36.3464 176.288 36.3464H169.162V33.0576ZM180.127 36.7453C181.306 36.2399 182.31 35.4384 182.31 33.4114C182.31 29.5666 179.073 29.1136 176.795 29.1136H164.761V47.7236H176.999C182.611 47.7236 183.775 44.6388 183.775 41.8048C183.775 38.6171 181.965 37.2958 180.127 36.7453ZM217.205 47.7236H227.268L229.595 43.6279H217.205V47.7236ZM98.1585 36.3464V40.4402H112.368L114.745 36.3464H98.1585ZM199.097 43.7796H192.575V39.6316H199.097C199.857 39.6316 201.019 39.8337 201.019 41.7038C201.019 43.424 200.06 43.7796 199.097 43.7796ZM199.349 35.7886H192.575V29.1136H188.124V47.7236H191.615H192.575H199.302C202.335 47.7236 205.47 46.0539 205.47 41.6568C205.47 35.8897 201.423 35.7886 199.349 35.7886ZM207.746 47.7236H212.147V29.1136H207.746V47.7236ZM124.353 29.1136L113.684 47.7236H118.942L125.972 35.4348L133.052 47.7236H138.563L127.893 29.1136H124.353ZM149.739 43.8806C145.442 43.8806 143.622 41.4023 143.622 38.368C143.622 35.0305 145.694 32.8049 149.739 32.8049C154.294 32.8049 155.859 35.0305 155.859 38.368C155.859 42.3626 152.877 43.8806 149.739 43.8806ZM149.792 28.6587C142.357 28.6587 138.817 33.2092 138.817 38.3157C138.817 43.6279 142.256 47.9763 149.792 47.9763C153.079 47.9763 160.665 46.4582 160.665 38.3157C160.665 33.007 157.276 28.6587 149.792 28.6587ZM72.6099 43.6279L79.6405 31.3374L86.7217 43.6279H72.6099ZM81.6134 25.0161H77.9709L67.3012 43.6279H64.6226V53.1838H68.868V47.7236H90.7145V53.1838H94.9636V43.6279H92.2831L81.6134 25.0161ZM118.891 29.1136H98.1585V33.2092H116.514L118.891 29.1136ZM217.205 36.3464V40.4402H231.414L233.791 36.3464H217.205ZM237.936 29.1136H217.205V33.2092H235.562L237.936 29.1136ZM346.058 29.1136L335.535 41.2001V29.1136H331.087V47.7236H334.829L345.551 35.5359V47.7236H350V29.1136H346.058ZM243.401 29.1136L232.728 47.7236H237.988L245.019 35.4348L252.098 47.7236H257.613L246.941 29.1136H243.401ZM297.607 36.3464H287.847V29.1136H283.396V47.7236H287.847V40.4402H297.607V47.7236H302.058V29.1136H297.607V36.3464ZM311.564 41.2001V29.1136H307.114V47.7236H310.856L321.578 35.5359V47.7236H326.029V29.1136H322.083L311.564 41.2001ZM263.876 41.0991V29.1136H259.423V47.7236H263.168L273.889 35.637V47.7236H278.34V29.1136H274.598L263.876 41.0991Z" fill="#2B2A29"/>
<path d="M31.6677 38.6767L10.5234 29.5269L6.03427 37.3012L29.823 41.8734L31.6677 38.6767ZM28.7219 47.7543H35.7543L41.9312 37.054L48.1099 47.7543H55.1405L41.9312 24.8735L28.7219 47.7543ZM4.98553 39.1225L0 47.7543H26.4277L28.7724 43.6947L4.98553 39.1225ZM40.785 22.888L27.5721 0L22.5793 8.64616L38.4384 26.9529L40.785 22.888ZM37.3879 28.776L21.5288 10.4638L17.0432 18.2346L35.5413 31.9728L37.3879 28.776ZM34.5413 33.6984L16.0414 19.971L11.5234 27.7959L32.6695 36.9475L34.5413 33.6984Z" fill="#F8AF03"/>
</svg>

<svg width="350" height="54" fill="none" xmlns="http://www.w3.org/2000/svg"><path d="M98.159 47.724h10.063l2.326-4.096h-12.39v4.096Zm78.84-3.944h-7.837v-3.997h7.837c1.262 0 2.175.305 2.175 1.973 0 1.314-.556 2.024-2.175 2.024Zm-7.837-10.722h7.126c1.063 0 1.52.556 1.52 1.617 0 1.114-.708 1.671-1.52 1.671h-7.126v-3.288Zm10.965 3.687c1.179-.505 2.183-1.307 2.183-3.334 0-3.844-3.237-4.297-5.515-4.297h-12.034v18.61h12.238c5.612 0 6.776-3.085 6.776-5.92 0-3.187-1.81-4.508-3.648-5.059Zm37.078 10.979h10.063l2.327-4.096h-12.39v4.096ZM98.158 36.346v4.094h14.21l2.377-4.094H98.158Zm100.939 7.434h-6.522v-4.148h6.522c.76 0 1.922.202 1.922 2.072 0 1.72-.959 2.076-1.922 2.076Zm.252-7.991h-6.774v-6.675h-4.451v18.61h11.178c3.033 0 6.168-1.67 6.168-6.067 0-5.767-4.047-5.868-6.121-5.868Zm8.397 11.935h4.401v-18.61h-4.401v18.61Zm-83.393-18.61-10.669 18.61h5.258l7.03-12.29 7.08 12.29h5.511l-10.67-18.61h-3.54Zm25.386 14.767c-4.297 0-6.117-2.479-6.117-5.513 0-3.337 2.072-5.563 6.117-5.563 4.555 0 6.12 2.226 6.12 5.563 0 3.995-2.982 5.513-6.12 5.513Zm.053-15.222c-7.435 0-10.975 4.55-10.975 9.657 0 5.312 3.439 9.66 10.975 9.66 3.287 0 10.873-1.518 10.873-9.66 0-5.309-3.389-9.657-10.873-9.657ZM72.61 43.628l7.03-12.29 7.082 12.29H72.61Zm9.003-18.612h-3.642L67.3 43.628h-2.678v9.556h4.245v-5.46h21.847v5.46h4.249v-9.556h-2.68l-10.67-18.612Zm37.278 4.098H98.158v4.095h18.356l2.377-4.095Zm98.314 7.232v4.094h14.209l2.377-4.094h-16.586Zm20.731-7.232h-20.731v4.095h18.357l2.374-4.095Zm108.122 0L335.535 41.2V29.114h-4.448v18.61h3.742l10.722-12.188v12.188H350v-18.61h-3.942Zm-102.657 0-10.673 18.61h5.26l7.031-12.29 7.079 12.29h5.515l-10.672-18.61h-3.54Zm54.206 7.232h-9.76v-7.232h-4.451v18.61h4.451V40.44h9.76v7.284h4.451v-18.61h-4.451v7.232Zm13.957 4.854V29.114h-4.45v18.61h3.742l10.722-12.188v12.188h4.451v-18.61h-3.946L311.564 41.2Zm-47.688-.1V29.113h-4.453v18.61h3.745l10.721-12.087v12.087h4.451v-18.61h-3.742l-10.722 11.985Z" fill="#2B2A29"/><path d="m31.668 38.677-21.145-9.15L6.034 37.3l23.789 4.572 1.845-3.196Zm-2.946 9.077h7.032l6.177-10.7 6.179 10.7h7.03l-13.209-22.88-13.21 22.88ZM4.986 39.123 0 47.754h26.428l2.344-4.06-23.786-4.572Zm35.799-16.235L27.572 0 22.58 8.646l15.86 18.307 2.346-4.065Zm-3.397 5.888-15.86-18.312-4.485 7.77 18.498 13.739 1.847-3.197Zm-2.847 4.922-18.5-13.727-4.518 7.825 21.146 9.151 1.872-3.249Z" fill="#F8AF03"/></svg>
